X:1
T:Title
%%score { ( 1 4 5 ) | ( 2 3 ) }
L:1/8
M:4/4
K:D
V:1 treble nm="Grand Piano"
V:4 treble 
V:5 treble 
V:2 bass 
V:3 bass 
V:1
 z4 z2[Q:1/4=100] F>G | A>A A>A d>c B>A | B4 G2 E>F | G>G G>G c>B A>^G | A4 z4 | A>A A>A B>A G>F | %6
 G4 z4 | E>E E>E A>A A>^G | A4 z4 | A>A A>A B>G E>F | G>G G>G A>F D>E | F>F E>D E>E D>C | %12
 z2 A,2 C>F E>D |[M:2/4] F2 E2 |[M:4/4] D>F E>D F2 E2 |[M:3/4] D6 |] %16
V:2
 z8 | D,2 [F,A,]2 [F,A,D]2 A,2 | z2 G,2 z4 | A,,2 [C,E,G,]4 [C,E,G,]2 | D,2 F,4 [F,A,]2 | %5
 D,2 [F,A,]2 D2 [F,A,]2 | D,2 G,4 [G,B,]2 | C,2 [E,G,]2 A,2 [E,G,]2 | D,2 F,4 [F,A,]2 | %9
 D,2 [F,A,]2 D,2 [G,B,]2 | D,2 [G,B,]2 D,2 [F,A,]2 | D,2 [F,A,]2 C,2 [G,A,]2 | %12
 D,2 F,2 C,2 [G,A,]2 |[M:2/4] [C,G,A,]4 |[M:4/4] [D,F,A,]4 [C,G,A,]4 |[M:3/4] [D,F,A,]6 |] %16
V:3
 x8 | x8 | C,2 z A A,,2 [C,E,G,]2 | x8 | x8 | x8 | x8 | x8 | x8 | x8 | x8 | x8 | x8 |[M:2/4] x4 | %14
[M:4/4] x8 |[M:3/4] x6 |] %16
V:4
 x8 | x8 | x8 | x8 | z2 z G F2 F>G | x8 | z2 z F E2 C>D | x8 | z2 z G F2 F>G | x8 | x8 | x8 | %12
 D4 z4 |[M:2/4] x4 |[M:4/4] x8 |[M:3/4] x6 |] %16
V:5
 x8 | x8 | x8 | x8 | z2 A,4 z2 | x8 | z2 B,4 z2 | x8 | z2 A,4 z2 | x8 | x8 | x8 | x8 |[M:2/4] x4 | %14
[M:4/4] x8 |[M:3/4] x6 |] %16

